lib/flags/m/MKD.svg

<svg xmlns="http://www.w3.org/2000/svg" fill="none" viewBox="0 0 20 15"><mask id="MKD_svg__a" width="20" height="15" x="0" y="0" mask-type="alpha" maskUnits="userSpaceOnUse"><path fill="#fff" d="M0 0H20V15H0z"/></mask><g mask="url(#MKD_svg__a)"><path fill="#F50100" fill-rule="evenodd" d="M0 0V15H20V0H0Z" clip-rule="evenodd"/><mask id="MKD_svg__b" width="20" height="15" x="0" y="0" mask-type="alpha" maskUnits="userSpaceOnUse"><path fill="#fff" fill-rule="evenodd" d="M0 0V15H20V0H0Z" clip-rule="evenodd"/></mask><g fill="#FFD018" mask="url(#MKD_svg__b)"><path fill-rule="evenodd" d="M0 -0.0262451V2.52621L8.75 6.24573L2.03452 -0.0262451H0ZM10 7.49998L11.875 -2.0016e-05H8.125L10 7.49998ZM10 7.49998L8.125 15H11.875L10 7.49998ZM0 12.4695V15.022L2.03452 15.022L8.75 8.74998L0 12.4695ZM20 2.54144V-0.0110097L17.9655 -0.0110097L11.25 6.26097L20 2.54144ZM20 15.0372V12.4847L11.25 8.76521L17.9655 15.0372L20 15.0372ZM20 5.62498L12.5 7.49998L20 9.37498V5.62498ZM7.5 7.49998L0 5.62498V9.37498L7.5 7.49998Z" clip-rule="evenodd"/><path stroke="#F50100" stroke-width="1.25" d="M10 10.625C11.7259 10.625 13.125 9.22589 13.125 7.5C13.125 5.77411 11.7259 4.375 10 4.375C8.27411 4.375 6.875 5.77411 6.875 7.5C6.875 9.22589 8.27411 10.625 10 10.625Z"/></g></g></svg>

<svg xmlns="http://www.w3.org/2000/svg" fill="none" viewBox="0 0 20 15"><mask id="MKD_svg__a" width="20" height="15" x="0" y="0" maskUnits="userSpaceOnUse"><path fill="#fff" d="M0 0h20v15H0z"/></mask><g mask="url(#MKD_svg__a)"><path fill="#F50100" fill-rule="evenodd" d="M0 0v15h20V0H0z" clip-rule="evenodd"/><mask id="MKD_svg__b" width="20" height="15" x="0" y="0" maskUnits="userSpaceOnUse"><path fill="#fff" fill-rule="evenodd" d="M0 0v15h20V0H0z" clip-rule="evenodd"/></mask><g fill="#FFD018" mask="url(#MKD_svg__b)"><path fill-rule="evenodd" d="M0-.026v2.552l8.75 3.72L2.035-.026H0zM10 7.5L11.875 0h-3.75L10 7.5zm0 0L8.125 15h3.75L10 7.5zM0 12.47v2.552h2.035L8.75 8.75 0 12.47zm20-9.93V-.01h-2.035L11.25 6.261 20 2.541zm0 12.496v-2.552l-8.75-3.72 6.715 6.272H20zm0-9.412L12.5 7.5 20 9.375v-3.75zM7.5 7.5L0 5.625v3.75L7.5 7.5z" clip-rule="evenodd"/><path stroke="#F50100" stroke-width="1.25" d="M10 10.625a3.125 3.125 0 100-6.25 3.125 3.125 0 000 6.25z"/></g></g></svg>
